icon_installer/data/icons/scalable/actions/show-today-symbolic.svg

<?xml version="1.0" encoding="UTF-8"?>
<svg height="16px" viewBox="0 0 16 16" width="16px" xmlns="http://www.w3.org/2000/svg">
    <g fill="#222222">
        <path d="m 3.042969 1 c -1.128907 0 -2.042969 0.914062 -2.042969 2.042969 v 9.875 c 0 1.132812 0.914062 2.042969 2.042969 2.042969 h 9.914062 c 1.128907 0 2.042969 -0.910157 2.042969 -2.042969 v -9.875 c 0 -1.128907 -0.914062 -2.042969 -2.042969 -2.042969 z m -0.042969 4.960938 h 10 v 7 h -10 z m 0 0"/>
        <path d="m 5 7 v 4 h 4 v -4 z m 1 1 h 2 v 2 h -2 z m 0 0"/>
    </g>
</svg>

<svg xmlns="http://www.w3.org/2000/svg" width="16" height="16"><g fill="#222"><path d="M3.043 1A2.042 2.042 0 0 0 1 3.043v9.875a2.04 2.04 0 0 0 2.043 2.043h9.914A2.04 2.04 0 0 0 15 12.918V3.043A2.042 2.042 0 0 0 12.957 1zM3 5.96h10v7H3zm0 0"/><path d="M5 7v4h4V7zm1 1h2v2H6zm0 0"/></g></svg>
